trunk/WorldWind/resources/milstd2525/icons/ems/enfaca---------.svg

<?xml version="1.0"?>
<!--
Copyright (C) 2012 United States Government as represented by the Administrator of the
National Aeronautics and Space Administration.
All Rights Reserved.
-->

<!DOCTYPE svg PUBLIC "-//W3C//DTD SVG 1.1//EN" "http://www.w3.org/Graphics/SVG/1.1/DTD/svg11.dtd" >
<!--
MIL-STD-2525 tactical symbol icon image. During icon composition this image is multiplied by the desired frame color 
(e.g. black), then drawn on top of the frame and fill.
-->
<svg xmlns:xlink="http://www.w3.org/1999/xlink" height="400px" viewBox="0 0 400 400" width="400px"><g transform="scale(100) translate(0.74 0.63)"><path d="M1.10993 1.0681 C1.10993 1.05171 1.12942 1.02826 1.1418 1.02826 L1.38481 1.02826     C1.39627 1.02826 1.41668 1.06377 1.41668 1.07208 L1.41668 1.08802 C1.41668 1.11034     1.38481 1.10548 1.38481 1.12387 L1.38481 1.25135 C1.38481 1.26343 1.6318     1.59506 1.6318 1.62183 L1.6318 1.70549 C1.6318 1.78202 1.46326 1.84891 1.37684     1.84891 L1.14977 1.84891 C1.09872 1.84891 1.02488 1.83092 0.993583 1.80989     C0.970977 1.7947 0.894811 1.73852 0.894811 1.70947 L0.894811 1.67362 C0.894811     1.61258 0.984441 1.49752 1.01245 1.44866 C1.02936 1.41915 1.13782 1.24875     1.13782 1.23143 L1.13782 1.12387 C1.13782 1.10535 1.10993 1.1089 1.10993     1.0681 zM1.37684 0.968506 L0.512374 0.968506 L0.512374 1.89273 L2.01423     1.89273 L2.01423 0.968506 L1.84692 0.968506 L1.84692 0.633876 L1.73538 0.633876     L1.73538 0.968506 L1.48838 0.968506 L1.48838 0.633876 L1.37684 0.633876 z" style="fill:rgb(255,255,255)"/><path d="M1.37683 0.633874 L1.48837 0.633874 L1.48837 0.968504 L1.73536 0.968504 L1.73536     0.633874 L1.84691 0.633874 L1.84691 0.968504 L2.01422 0.968504 L2.01422 1.89272     L0.512363 1.89272 L0.512363 0.968504 L1.37683 0.968504 zM0.48448 1.92459     L2.04211 1.92459 L2.04211 0.936633 L1.88276 0.936633 L1.88276 0.602003 L1.7035     0.602003 L1.7035 0.936633 L1.52423 0.936633 L1.52423 0.602003 L1.34496 0.602003     L1.34496 0.936633 L0.48448 0.936633 z" style="fill:rgb(0,0,0)"/></g><rect height="90" style="fill:rgb(255,255,255);stroke:rgb(255,255,255);stroke-width:1" transform="matrix(1 0 0 1 0 0)" width="141" x="131" y="161"/><g transform="scale(100) translate(0.74 0.62)"><path d="M1.12985 1.06411 L1.13782 1.092 L1.38082 1.092 C1.39015 1.092 1.39676 1.08539 1.39676     1.07606 C1.39676 1.05746 1.38747 1.04818 1.36887 1.04818 L1.15774 1.04818     C1.14152 1.04818 1.13631 1.05446 1.12985 1.06411 z" style="fill:rgb(255,255,255)"/><path d="M1.36887 1.82898 L1.1418 1.82898 C1.09613 1.82898 1.03542 1.81502 1.00709 1.79637     C0.987314 1.78336 0.918893 1.71894 0.914728 1.71744 L0.914728 1.68557 C0.914728     1.62189 0.997677 1.50305 1.02864 1.45688 C1.04112 1.43827 1.16172 1.2446     1.16172 1.24338 L1.16172 1.11988 L1.36489 1.11988 L1.36489 1.25533 C1.36489     1.28147 1.61188 1.58787 1.61188 1.63378 L1.61188 1.69354 C1.61188 1.76844     1.44846 1.82898 1.36887 1.82898 zM1.36887 1.04818 C1.38747 1.04818 1.39676 1.05746     1.39676 1.07606 C1.39676 1.08539 1.39015 1.092 1.38082 1.092 L1.13782     1.092 L1.12985 1.06411 C1.13631 1.05446 1.14152 1.04818 1.15774 1.04818 zM1.37684     1.8489 C1.46326 1.8489 1.6318 1.78201 1.6318 1.70549 L1.6318 1.62183     C1.6318 1.59505 1.38481 1.26343 1.38481 1.25134 L1.38481 1.12387 C1.38481 1.10548     1.41668 1.11034 1.41668 1.08801 L1.41668 1.07208 C1.41668 1.06376 1.39627     1.02826 1.38481 1.02826 L1.1418 1.02826 C1.12942 1.02826 1.10993 1.05171     1.10993 1.06809 C1.10993 1.10889 1.13782 1.10535 1.13782 1.12387 L1.13782 1.23143     C1.13782 1.24874 1.02936 1.41915 1.01245 1.44866 C0.984441 1.49752 0.894811     1.61258 0.894811 1.67362 L0.894811 1.70947 C0.894811 1.73851 0.970977     1.79469 0.993583 1.80988 C1.02488 1.83092 1.09872 1.8489 1.14977 1.8489 z" style="fill:rgb(0,0,0)"/><path d="M1.00635 1.61785 L1.00635 1.66565 C1.00635 1.75277 1.15748 1.77321 1.25334 1.77321     L1.33302 1.77321 C1.39505 1.77321 1.5322 1.7191 1.5322 1.66964 L1.5322 1.64972     C1.5322 1.57114 1.36681 1.41565 1.34895 1.33899 L1.16172 1.33899 C1.14724     1.4011 1.00635 1.58779 1.00635 1.61785 z" style="fill:rgb(0,0,0)"/><path d="M1.00635 1.61785 C1.00635 1.58779 1.14724 1.4011 1.16172 1.33899 L1.34895 1.33899     C1.36681 1.41565 1.5322 1.57114 1.5322 1.64972 L1.5322 1.66964 C1.5322 1.7191     1.39505 1.77321 1.33302 1.77321 L1.25334 1.77321 C1.15748 1.77321 1.00635     1.75277 1.00635 1.66565 zM1.36887 1.82898 C1.44846 1.82898 1.61187 1.76845     1.61187 1.69354 L1.61187 1.63378 C1.61187 1.58787 1.36489 1.28147 1.36489 1.25533     L1.36489 1.11989 L1.16172 1.11989 L1.16172 1.24338 C1.16172 1.2446 1.04112     1.43827 1.02864 1.45689 C0.997673 1.50305 0.914725 1.62189 0.914725 1.68557     L0.914725 1.71744 C0.91889 1.71895 0.987312 1.78336 1.00709 1.79638 C1.03542     1.81502 1.09612 1.82898 1.1418 1.82898 z" style="fill:rgb(255,255,255)"/></g><path d="M188.668 173.353 C188.668 173.353 188.122 179.865 188.668 183.55" style="fill:none;stroke:rgb(0,0,0);stroke-width:5" transform="matrix(1 0 0 1 0 0) translate(1 0)"/><path d="M189.501 182.012 C189.49 198.286 164.001 212.414 164.001 231.437" style="fill:none;stroke:rgb(0,0,0);stroke-width:5" transform="matrix(1 0 0 1 0 0)"/><path d="M211.335 172.937 C211.335 172.937 211.085 179.937 211.001 183.353" style="fill:none;stroke:rgb(0,0,0);stroke-width:5" transform="matrix(1 0 0 1 0 0)"/><path d="M211.001 182.103 C214.761 204.282 236.668 211.376 235.668 231.603" style="fill:none;stroke:rgb(0,0,0);stroke-width:5" transform="matrix(1 0 0 1 0 0)"/><path d="M189.234 165.906 C182.766 165.692 184.788 173.271 190.567 172.462" style="fill:none;stroke:rgb(0,0,0);stroke-width:4" transform="matrix(1 0 0 1 0 0)"/><path d="M209.678 172.573 C217.004 170.882 216.931 166.128 209.456 165.906" style="fill:none;stroke:rgb(0,0,0);stroke-width:4" transform="matrix(1 0 0 1 0 0)"/><path d="M187.456 165.906 C187.456 165.906 205.234 165.962 211.122 165.906" style="fill:none;stroke:rgb(0,0,0);stroke-width:4" transform="matrix(1 0 0 1 0 0)"/><path d="M188.345 172.351 C188.345 172.351 205.178 172.351 210.789 172.351" style="fill:none;stroke:rgb(0,0,0);stroke-width:4" transform="matrix(1 0 0 1 0 0)"/><path d="M186.122 246.128 C186.122 246.128 206.456 246.128 213.234 246.128" style="fill:none;stroke:rgb(0,0,0);stroke-width:5" transform="matrix(1 0 0 1 0 0)"/><path d="M209.9 246.351 C222.677 244.876 234.956 245.93 235.456 230.351" style="fill:none;stroke:rgb(0,0,0);stroke-width:5" transform="matrix(1 0 0 1 0 0)"/><path d="M187.658 246.192 C177.884 247.006 163.943 241.273 163.943 230.049" style="fill:none;stroke:rgb(0,0,0);stroke-width:5" transform="matrix(1 0 0 1 0 0)"/><path d="M185.978 168.758 L186.478 170.841" style="fill:none;stroke:rgb(0,0,0);stroke-width:1" transform="matrix(1 0 0 1 0 0)"/></svg>

<?xml version="1.0" encoding="UTF-8" standalone="no"?>
<!--
Copyright (C) 2012 United States Government as represented by the Administrator of the
National Aeronautics and Space Administration.
All Rights Reserved.
-->

<!--
MIL-STD-2525 tactical symbol icon image. During icon composition this image is multiplied by the desired frame color 
(e.g. black), then drawn on top of the frame and fill.
-->

<svg
   xmlns:dc="http://purl.org/dc/elements/1.1/"
   xmlns:cc="http://creativecommons.org/ns#"
   xmlns:rdf="http://www.w3.org/1999/02/22-rdf-syntax-ns#"
   xmlns:svg="http://www.w3.org/2000/svg"
   xmlns="http://www.w3.org/2000/svg"
   xmlns:sodipodi="http://sodipodi.sourceforge.net/DTD/sodipodi-0.dtd"
   xmlns:inkscape="http://www.inkscape.org/namespaces/inkscape"
   height="400px"
   viewBox="0 0 400 400"
   width="400px"
   id="svg2"
   version="1.1"
   inkscape:version="0.48.2 r9819"
   sodipodi:docname="enfaca---------.svg">
  <metadata
     id="metadata50">
    <rdf:RDF>
      <cc:Work
         rdf:about="">
        <dc:format>image/svg+xml</dc:format>
        <dc:type
           rdf:resource="http://purl.org/dc/dcmitype/StillImage" />
      </cc:Work>
    </rdf:RDF>
  </metadata>
  <defs
     id="defs48" />
  <sodipodi:namedview
     pagecolor="#ffffff"
     bordercolor="#666666"
     borderopacity="1"
     objecttolerance="10"
     gridtolerance="10"
     guidetolerance="10"
     inkscape:pageopacity="0"
     inkscape:pageshadow="2"
     inkscape:window-width="640"
     inkscape:window-height="480"
     id="namedview46"
     showgrid="false"
     inkscape:zoom="0.59"
     inkscape:cx="200"
     inkscape:cy="200"
     inkscape:window-x="85"
     inkscape:window-y="44"
     inkscape:window-maximized="0"
     inkscape:current-layer="svg2" />
  <g
     transform="matrix(100,0,0,100,74,63)"
     id="g4"
     style="fill:#ffffff;fill-opacity:1;stroke:#000000;stroke-width:0.06;stroke-miterlimit:4;stroke-opacity:1;stroke-dasharray:0.12, 0.06;stroke-dashoffset:0">
    <path
       inkscape:connector-curvature="0"
       d="m 1.10993,1.0681 c 0,-0.01639 0.01949,-0.03984 0.03187,-0.03984 l 0.24301,0 c 0.01146,0 0.03187,0.03551 0.03187,0.04382 l 0,0.01594 c 0,0.02232 -0.03187,0.01746 -0.03187,0.03585 l 0,0.12748 c 0,0.01208 0.24699,0.34371 0.24699,0.37048 l 0,0.08366 c 0,0.07653 -0.16854,0.14342 -0.25496,0.14342 l -0.22707,0 C 1.09872,1.84891 1.02488,1.83092 0.993583,1.80989 0.970977,1.7947 0.894811,1.73852 0.894811,1.70947 l 0,-0.03585 c 0,-0.06104 0.08963,-0.1761 0.117639,-0.22496 C 1.02936,1.41915 1.13782,1.24875 1.13782,1.23143 l 0,-0.10756 C 1.13782,1.10535 1.10993,1.1089 1.10993,1.0681 z m 0.26691,-0.099594 -0.864466,0 0,0.924224 1.501856,0 0,-0.924224 -0.16731,0 0,-0.33463 -0.11154,0 0,0.33463 -0.247,0 0,-0.33463 -0.11154,0 z"
       style="fill:#ffffff;fill-opacity:1;stroke:#000000;stroke-width:0.06;stroke-miterlimit:4;stroke-opacity:1;stroke-dasharray:0.12, 0.06;stroke-dashoffset:0"
       id="path6" />
    <path
       d="m 0.48448,1.92459 1.55763,0 0,-0.987957 -0.15935,0 0,-0.33463 -0.17926,0 0,0.33463 -0.17927,0 0,-0.33463 -0.17927,0 0,0.33463 -0.86048,0 z"
       style="fill:#ffffff;fill-opacity:1;stroke:#000000;stroke-width:0.06;stroke-miterlimit:4;stroke-opacity:1;stroke-dasharray:0.12, 0.06;stroke-dashoffset:0"
       id="path8"
       inkscape:connector-curvature="0"
       sodipodi:nodetypes="ccccccccccccc" />
  </g>
  <g
     transform="matrix(100,0,0,100,74,62)"
     id="g12">
    <path
       inkscape:connector-curvature="0"
       d="m 1.12985,1.06411 0.00797,0.02789 0.243,0 c 0.00933,0 0.01594,-0.00661 0.01594,-0.01594 0,-0.0186 -0.00929,-0.02788 -0.02789,-0.02788 l -0.21113,0 c -0.01622,0 -0.02143,0.00628 -0.02789,0.01593 z"
       style="fill:#ffffff"
       id="path14" />
    <path
       inkscape:connector-curvature="0"
       d="m 1.36887,1.82898 -0.22707,0 C 1.09613,1.82898 1.03542,1.81502 1.00709,1.79637 0.987314,1.78336 0.918893,1.71894 0.914728,1.71744 l 0,-0.03187 c 0,-0.06368 0.082949,-0.18252 0.113912,-0.22869 C 1.04112,1.43827 1.16172,1.2446 1.16172,1.24338 l 0,-0.1235 0.20317,0 0,0.13545 c 0,0.02614 0.24699,0.33254 0.24699,0.37845 l 0,0.05976 c 0,0.0749 -0.16342,0.13544 -0.24301,0.13544 z m 0,-0.7808 c 0.0186,0 0.02789,0.00928 0.02789,0.02788 0,0.00933 -0.00661,0.01594 -0.01594,0.01594 l -0.243,0 L 1.12985,1.06411 C 1.13631,1.05446 1.14152,1.04818 1.15774,1.04818 z M 1.37684,1.8489 c 0.08642,0 0.25496,-0.06689 0.25496,-0.14341 l 0,-0.08366 c 0,-0.02678 -0.24699,-0.3584 -0.24699,-0.37049 l 0,-0.12747 c 0,-0.01839 0.03187,-0.01353 0.03187,-0.03586 l 0,-0.01593 c 0,-0.00832 -0.02041,-0.04382 -0.03187,-0.04382 l -0.24301,0 c -0.01238,0 -0.03187,0.02345 -0.03187,0.03983 0,0.0408 0.02789,0.03726 0.02789,0.05578 l 0,0.10756 c 0,0.01731 -0.10846,0.18772 -0.12537,0.21723 C 0.984441,1.49752 0.894811,1.61258 0.894811,1.67362 l 0,0.03585 c 0,0.02904 0.076166,0.08522 0.098772,0.10041 C 1.02488,1.83092 1.09872,1.8489 1.14977,1.8489 z"
       style="fill:#000000"
       id="path16" />
    <path
       inkscape:connector-curvature="0"
       d="m 1.00635,1.61785 0,0.0478 c 0,0.08712 0.15113,0.10756 0.24699,0.10756 l 0.07968,0 c 0.06203,0 0.19918,-0.05411 0.19918,-0.10357 l 0,-0.01992 c 0,-0.07858 -0.16539,-0.23407 -0.18325,-0.31073 l -0.18723,0 C 1.14724,1.4011 1.00635,1.58779 1.00635,1.61785 z"
       style="fill:#000000"
       id="path18" />
    <path
       inkscape:connector-curvature="0"
       d="m 1.00635,1.61785 c 0,-0.03006 0.14089,-0.21675 0.15537,-0.27886 l 0.18723,0 C 1.36681,1.41565 1.5322,1.57114 1.5322,1.64972 l 0,0.01992 c 0,0.04946 -0.13715,0.10357 -0.19918,0.10357 l -0.07968,0 c -0.09586,0 -0.24699,-0.02044 -0.24699,-0.10756 z m 0.36252,0.21113 c 0.07959,0 0.243,-0.06053 0.243,-0.13544 l 0,-0.05976 c 0,-0.04591 -0.24698,-0.35231 -0.24698,-0.37845 l 0,-0.13544 -0.20317,0 0,0.12349 c 0,0.00122 -0.1206,0.19489 -0.13308,0.21351 -0.030967,0.04616 -0.113915,0.165 -0.113915,0.22868 l 0,0.03187 C 0.91889,1.71895 0.987312,1.78336 1.00709,1.79638 1.03542,1.81502 1.09612,1.82898 1.1418,1.82898 z"
       style="fill:#ffffff"
       id="path20" />
  </g>
  <path
     inkscape:connector-curvature="0"
     d="m 189.668,173.353 c 0,0 -0.546,6.512 0,10.197"
     style="fill:none;stroke:#000000;stroke-width:5"
     id="path22" />
  <path
     inkscape:connector-curvature="0"
     d="m 189.501,182.012 c -0.011,16.274 -25.5,30.402 -25.5,49.425"
     style="fill:none;stroke:#000000;stroke-width:5"
     id="path24" />
  <path
     inkscape:connector-curvature="0"
     d="m 211.335,172.937 c 0,0 -0.25,7 -0.334,10.416"
     style="fill:none;stroke:#000000;stroke-width:5"
     id="path26" />
  <path
     inkscape:connector-curvature="0"
     d="m 211.001,182.103 c 3.76,22.179 25.667,29.273 24.667,49.5"
     style="fill:none;stroke:#000000;stroke-width:5"
     id="path28" />
  <path
     inkscape:connector-curvature="0"
     d="m 189.234,165.906 c -6.468,-0.214 -4.446,7.365 1.333,6.556"
     style="fill:none;stroke:#000000;stroke-width:4"
     id="path30" />
  <path
     inkscape:connector-curvature="0"
     d="m 209.678,172.573 c 7.326,-1.691 7.253,-6.445 -0.222,-6.667"
     style="fill:none;stroke:#000000;stroke-width:4"
     id="path32" />
  <path
     inkscape:connector-curvature="0"
     d="m 187.456,165.906 c 0,0 17.778,0.056 23.666,0"
     style="fill:none;stroke:#000000;stroke-width:4"
     id="path34" />
  <path
     inkscape:connector-curvature="0"
     d="m 188.345,172.351 c 0,0 16.833,0 22.444,0"
     style="fill:none;stroke:#000000;stroke-width:4"
     id="path36" />
  <path
     inkscape:connector-curvature="0"
     d="m 186.122,246.128 c 0,0 20.334,0 27.112,0"
     style="fill:none;stroke:#000000;stroke-width:5"
     id="path38" />
  <path
     inkscape:connector-curvature="0"
     d="m 209.9,246.351 c 12.777,-1.475 25.056,-0.421 25.556,-16"
     style="fill:none;stroke:#000000;stroke-width:5"
     id="path40" />
  <path
     inkscape:connector-curvature="0"
     d="m 187.658,246.192 c -9.774,0.814 -23.715,-4.919 -23.715,-16.143"
     style="fill:none;stroke:#000000;stroke-width:5"
     id="path42" />
  <path
     inkscape:connector-curvature="0"
     d="m 185.978,168.758 0.5,2.083"
     style="fill:none;stroke:#000000;stroke-width:1"
     id="path44" />
</svg>
